build/system/SaveOutline.svg

<svg xmlns="http://www.w3.org/2000/svg" fill="none" viewBox="0 0 24 24" focusable="false"><path d="M0 0H24V24H0z"/><path fill="#74767B" fill-rule="evenodd" d="M7.77672 20L17 20C18.6569 20 20 18.6569 20 17L20 10.2426C20 9.44699 19.6839 8.68393 19.1213 8.12132L15.8787 4.87868C15.3161 4.31607 14.553 4 13.7574 4L6.99273 4C5.33922 4.00392 4 5.34557 4 7L4 17C4 18.6569 5.34315 20 7 20L7.53188 20C7.57152 20.0076 7.61245 20.0115 7.6543 20.0115C7.69615 20.0115 7.73707 20.0076 7.77672 20ZM17.0103 18.7L17.0103 13.7C17.0103 12.9544 16.4059 12.35 15.6603 12.35L8.35429 12.35C7.60871 12.35 7.0043 12.9545 7.0043 13.7L7.0043 18.7L7 18.7C6.06112 18.7 5.3 17.9389 5.3 17L5.3 7C5.3 6.06354 6.05719 5.30393 6.99273 5.30002L6.99273 8.29998C6.99273 9.04556 7.59715 9.64998 8.34273 9.64998L12.6483 9.64998C13.3939 9.64998 13.9983 9.04556 13.9983 8.29998L13.9983 5.31716C14.3601 5.36896 14.698 5.53646 14.9594 5.79792L18.2021 9.04056C18.5209 9.35937 18.7 9.79177 18.7 10.2426L18.7 17C18.7 17.9354 17.9445 18.6944 17.0103 18.7ZM15.7103 18.7L15.7103 13.7C15.7103 13.6724 15.688 13.65 15.6603 13.65L8.3543 13.65C8.32668 13.65 8.3043 13.6724 8.3043 13.7L8.3043 18.7L15.7103 18.7ZM12.6983 8.29998L12.6983 5.3L8.29273 5.3L8.29273 8.29998C8.29273 8.32759 8.31512 8.34998 8.34273 8.34998L12.6483 8.34998C12.6759 8.34998 12.6983 8.32759 12.6983 8.29998Z"/></svg>

<svg xmlns="http://www.w3.org/2000/svg" fill="none" viewBox="0 0 24 24" focusable="false"><path fill="#74767B" fill-rule="evenodd" d="M7.77 20H17c1.65 0 3-1.35 3-3v-6.76c0-.8-.32-1.56-.88-2.12l-3.25-3.25c-.56-.56-1.32-.87-2.12-.87H6.99C5.33 4 4 5.34 4 7v10c0 1.65 1.34 3 3 3h.53c.04 0 .08.01.12.01s.08-.01.12-.01m9.24-1.3v-5c0-.75-.61-1.35-1.35-1.35H8.35c-.75 0-1.35.6-1.35 1.35v5c-.94 0-1.71-.77-1.71-1.7V7c0-.94.76-1.7 1.7-1.7v2.99c0 .75.6 1.35 1.35 1.35h4.3c.75 0 1.35-.6 1.35-1.35V5.31c.37.05.7.22.96.48l3.25 3.25c.32.31.5.75.5 1.2V17c0 .93-.76 1.69-1.69 1.7m-1.3 0v-5c0-.03-.03-.05-.05-.05H8.35c-.03 0-.05.02-.05.05v5zM12.69 8.29v-3h-4.4v3c0 .03.02.05.05.05h4.3c.03 0 .05-.02.05-.05"/></svg>
